assets/svg/icon-ui-connectors-white.svg

<?xml version="1.0" encoding="UTF-8" standalone="no"?>
<svg width="55px" height="32px" viewBox="0 0 55 32" version="1.1" xmlns="http://www.w3.org/2000/svg" xmlns:xlink="http://www.w3.org/1999/xlink">
    <!-- Generator: Sketch 3.8.3 (29802) - http://www.bohemiancoding.com/sketch -->
    <title>white/icon-ui-connectors-white</title>
    <desc>Created with Sketch.</desc>
    <defs></defs>
    <g id="white" stroke="none" stroke-width="1" fill="none" fill-rule="evenodd">
        <g id="icons,-utility-white" transform="translate(-799.000000, -765.000000)" fill="#FFFFFF">
            <g id="white/icon-ui-connectors-white" transform="translate(799.000000, 765.000000)">
                <g id="Group">
                    <g id="Page-1">
                        <g id="Group">
                            <path d="M12.9032258,32 C20.0294807,32 25.8064516,26.2230291 25.8064516,19.0967742 C25.8064516,11.9705193 20.0294807,6.19354839 12.9032258,6.19354839 C5.77697097,6.19354839 0,11.9705193 0,19.0967742 C0,26.2230291 5.77697097,32 12.9032258,32 L12.9032258,32 Z M12.9032258,27.8709677 C17.7490791,27.8709677 21.6774194,23.9426275 21.6774194,19.0967742 C21.6774194,14.2509209 17.7490791,10.3225806 12.9032258,10.3225806 C8.05737252,10.3225806 4.12903226,14.2509209 4.12903226,19.0967742 C4.12903226,23.9426275 8.05737252,27.8709677 12.9032258,27.8709677 L12.9032258,27.8709677 Z" id="Oval-1"></path>
                            <path d="M13.4102998,16.6525561 C13.4237673,16.5515499 13.457253,16.3451307 13.5151456,16.0486079 C13.6134819,15.5449342 13.7449987,14.9812908 13.913954,14.3730517 C14.3968447,12.6346451 15.0803063,10.8970309 15.9948616,9.28310975 C18.5667659,4.74445508 22.4080118,2.06451613 27.8709677,2.06451613 C33.3339237,2.06451613 37.1751696,4.74445508 39.7470739,9.28310975 C40.6616292,10.8970309 41.3450908,12.6346451 41.8279815,14.3730517 C41.9969368,14.9812908 42.1284536,15.5449342 42.2267899,16.0486079 C42.2846824,16.3451307 42.3181682,16.5515499 42.3316357,16.6525561 L44.3780417,16.379702 C44.3592511,16.2387727 44.3191482,15.9915629 44.2530488,15.653005 C44.1447319,15.0982109 44.0010471,14.4824189 43.8171798,13.8204967 C43.292006,11.929871 42.5480482,10.0384529 41.5432487,8.26527735 C38.6312821,3.12651267 34.1499472,0 27.8709677,0 C21.5919882,8.02225669e-16 17.1106534,3.12651267 14.1986868,8.26527735 C13.1938873,10.0384529 12.4499295,11.929871 11.9247557,13.8204967 C11.7408884,14.4824189 11.5972036,15.0982109 11.4888867,15.653005 C11.4227873,15.9915629 11.3826843,16.2387727 11.3638938,16.379702 L13.4102998,16.6525561 L13.4102998,16.6525561 Z" id="Path-3"></path>
                            <polygon id="Triangle-1" transform="translate(12.713920, 19.748115) rotate(184.000000) translate(-12.713920, -19.748115) " points="12.7139197 16.1352114 16.842952 23.3610179 8.58488743 23.3610179"></polygon>
                            <path d="M29.9354839,7.22580645 L54.7096774,7.22580645 L54.7096774,32 L29.9354839,32 L29.9354839,7.22580645 L29.9354839,7.22580645 Z M33.0322581,10.3225806 L51.6129032,10.3225806 L51.6129032,28.9032258 L33.0322581,28.9032258 L33.0322581,10.3225806 L33.0322581,10.3225806 Z" id="Rectangle-3"></path>
                            <polygon id="Triangle-1" transform="translate(43.681662, 19.748115) rotate(-4.000000) translate(-43.681662, -19.748115) " points="43.6816623 16.1352114 47.8106945 23.3610179 39.55263 23.3610179"></polygon>
                        </g>
                    </g>
                </g>
            </g>
        </g>
    </g>
</svg>

<svg width="55" height="32" viewBox="0 0 55 32" xmlns="http://www.w3.org/2000/svg"><title>white/icon-ui-connectors-white</title><g fill="#FFF" fill-rule="evenodd"><path d="M12.903 32c7.126 0 12.903-5.777 12.903-12.903S20.03 6.194 12.903 6.194 0 11.97 0 19.097 5.777 32 12.903 32zm0-4.129a8.774 8.774 0 1 0 0-17.548 8.774 8.774 0 0 0 0 17.548z"/><path d="M13.41 16.653a11.4 11.4 0 0 1 .105-.604c.098-.504.23-1.068.399-1.676.483-1.738 1.166-3.476 2.08-5.09 2.573-4.539 6.414-7.218 11.877-7.218 5.463 0 9.304 2.68 11.876 7.218.915 1.614 1.598 3.352 2.081 5.09.169.608.3 1.172.399 1.676.058.296.091.503.105.604l2.046-.273c-.019-.141-.059-.388-.125-.727a24.232 24.232 0 0 0-.436-1.833c-.525-1.89-1.269-3.782-2.274-5.555C38.631 3.127 34.15 0 27.871 0c-6.279 0-10.76 3.127-13.672 8.265-1.005 1.773-1.75 3.665-2.274 5.555a24.232 24.232 0 0 0-.436 1.833c-.066.339-.106.586-.125.727l2.046.273z"/><path d="M12.462 23.352l-3.615-7.496 8.238.576zM29.935 7.226H54.71V32H29.935V7.226zm3.097 3.097h18.58v18.58h-18.58v-18.58z"/><path d="M43.43 16.144l4.623 6.92-8.238.576z"/></g></svg>
